flaticon/symbols/understanding.svg

<svg xmlns="http://www.w3.org/2000/svg" width="32" height="32" viewBox="0 0 24 24">
    <path d="M 21.425781 10.246094 C 21.210938 10.167969 20.972656 10.1875 20.773438 10.296875 C 20.585938 10.398438 20.453125 10.574219 20.40625 10.777344 L 20.136719 11.9375 L 16.777344 11.152344 C 16.558594 9.929688 15.871094 8.824219 14.871094 8.089844 L 15.652344 4.730469 L 16.808594 5 C 16.863281 5.011719 16.917969 5.019531 16.976562 5.019531 C 17.125 5.019531 17.277344 4.972656 17.40625 4.882812 C 17.589844 4.75 17.710938 4.546875 17.738281 4.316406 C 17.964844 2.363281 16.691406 0.550781 14.769531 0.101562 C 12.851562 -0.347656 10.90625 0.71875 10.246094 2.574219 C 10.167969 2.789062 10.1875 3.027344 10.296875 3.226562 C 10.398438 3.414062 10.574219 3.546875 10.777344 3.59375 L 11.9375 3.863281 L 11.152344 7.222656 C 9.929688 7.441406 8.824219 8.128906 8.089844 9.128906 L 4.730469 8.347656 L 5 7.191406 C 5.046875 6.988281 5.003906 6.769531 4.882812 6.597656 C 4.75 6.410156 4.546875 6.289062 4.316406 6.261719 C 2.359375 6.035156 0.550781 7.308594 0.101562 9.230469 C -0.34375 11.148438 0.71875 13.09375 2.574219 13.753906 C 2.660156 13.785156 2.753906 13.800781 2.84375 13.800781 C 2.976562 13.800781 3.109375 13.769531 3.226562 13.703125 C 3.414062 13.601562 3.546875 13.425781 3.59375 13.222656 L 3.863281 12.066406 L 7.222656 12.847656 C 7.328125 13.449219 7.546875 14.03125 7.878906 14.566406 C 8.210938 15.097656 8.636719 15.554688 9.128906 15.914062 L 8.347656 19.269531 L 7.191406 19 C 6.988281 18.953125 6.769531 18.996094 6.59375 19.121094 C 6.410156 19.25 6.289062 19.457031 6.261719 19.683594 C 6.035156 21.640625 7.308594 23.453125 9.230469 23.898438 C 9.523438 23.96875 9.820312 24 10.113281 24 C 11.71875 24 13.195312 22.996094 13.753906 21.425781 C 13.832031 21.210938 13.8125 20.972656 13.703125 20.773438 C 13.601562 20.585938 13.425781 20.453125 13.222656 20.40625 L 12.0625 20.136719 L 12.847656 16.773438 C 13.449219 16.664062 14.03125 16.453125 14.5625 16.121094 C 15.097656 15.789062 15.550781 15.363281 15.914062 14.871094 L 19.269531 15.652344 L 19 16.808594 C 18.953125 17.011719 18.996094 17.230469 19.121094 17.40625 C 19.25 17.589844 19.453125 17.710938 19.683594 17.738281 C 19.835938 17.753906 19.984375 17.765625 20.136719 17.765625 C 21.910156 17.765625 23.484375 16.542969 23.898438 14.769531 C 24.34375 12.851562 23.28125 10.90625 21.425781 10.246094 Z M 2.773438 12.898438 C 1.390625 12.359375 0.609375 10.882812 0.949219 9.425781 C 1.269531 8.054688 2.488281 7.105469 3.867188 7.105469 C 3.949219 7.105469 4.035156 7.109375 4.121094 7.117188 L 3.449219 10.007812 L 3.015625 11.867188 Z M 14.574219 0.949219 C 16.03125 1.289062 17.007812 2.644531 16.882812 4.121094 L 11.101562 2.777344 C 11.640625 1.394531 13.113281 0.609375 14.574219 0.949219 Z M 13.792969 4.296875 L 14.804688 4.53125 L 14.109375 7.507812 L 13.101562 7.273438 C 13.101562 7.273438 13.097656 7.273438 13.097656 7.273438 L 12.089844 7.039062 L 12.785156 4.0625 Z M 4.0625 11.214844 L 4.53125 9.195312 L 7.507812 9.890625 L 7.039062 11.910156 Z M 9.425781 23.050781 C 7.96875 22.710938 6.992188 21.359375 7.117188 19.878906 L 8.148438 20.117188 L 11.445312 20.886719 L 12.898438 21.226562 C 12.359375 22.609375 10.882812 23.390625 9.425781 23.050781 Z M 9.195312 19.46875 L 9.890625 16.492188 L 11.910156 16.960938 L 11.214844 19.9375 L 10.867188 19.855469 Z M 14.105469 15.382812 C 13.199219 15.945312 12.132812 16.121094 11.097656 15.878906 C 10.0625 15.636719 9.179688 15.007812 8.617188 14.105469 C 8.058594 13.203125 7.882812 12.136719 8.121094 11.105469 L 8.125 11.089844 C 8.554688 9.257812 10.195312 8.015625 12 8.015625 C 12.296875 8.015625 12.601562 8.050781 12.902344 8.121094 C 15.042969 8.621094 16.375 10.765625 15.878906 12.902344 L 15.878906 12.90625 C 15.636719 13.941406 15.007812 14.820312 14.105469 15.382812 Z M 16.960938 12.089844 L 19.9375 12.785156 L 19.46875 14.804688 L 16.492188 14.109375 Z M 23.050781 14.574219 C 22.710938 16.03125 21.355469 17.007812 19.878906 16.882812 L 20.550781 13.992188 L 20.984375 12.132812 L 21.222656 11.101562 C 22.605469 11.640625 23.390625 13.117188 23.050781 14.574219 Z M 23.050781 14.574219"/>
</svg>

<svg xmlns="http://www.w3.org/2000/svg" width="32" height="32" viewBox="0 0 24 24">
    <path d="M21.426 10.246a.794.794 0 0 0-.653.05.735.735 0 0 0-.367.481l-.27 1.16-3.359-.785a4.88 4.88 0 0 0-1.906-3.062l.781-3.36L16.81 5a.757.757 0 0 0 .598-.117.815.815 0 0 0 .331-.567A3.87 3.87 0 0 0 14.77.102a3.866 3.866 0 0 0-4.524 2.472.794.794 0 0 0 .05.653c.102.187.278.32.481.367l1.16.27-.785 3.359A4.88 4.88 0 0 0 8.09 9.129l-3.36-.781L5 7.19a.747.747 0 0 0-.117-.593.806.806 0 0 0-.567-.336A3.868 3.868 0 0 0 .102 9.23a3.87 3.87 0 0 0 2.472 4.524.799.799 0 0 0 .653-.05.735.735 0 0 0 .367-.481l.27-1.157 3.359.782a4.838 4.838 0 0 0 1.906 3.066l-.781 3.356L7.19 19a.745.745 0 0 0-.597.121.807.807 0 0 0-.332.563A3.865 3.865 0 0 0 10.113 24a3.866 3.866 0 0 0 3.64-2.574.794.794 0 0 0-.05-.653.735.735 0 0 0-.48-.367l-1.16-.27.785-3.363a4.857 4.857 0 0 0 1.714-.652 4.866 4.866 0 0 0 1.352-1.25l3.356.781L19 16.81a.745.745 0 0 0 .121.597.799.799 0 0 0 .563.332c.152.016.3.028.453.028a3.87 3.87 0 0 0 3.761-2.996 3.87 3.87 0 0 0-2.472-4.524zM2.773 12.898A2.994 2.994 0 0 1 .95 9.426a3 3 0 0 1 3.172-2.309l-.672 2.89-.433 1.86zM14.574.95a2.999 2.999 0 0 1 2.309 3.172l-5.781-1.344A2.994 2.994 0 0 1 14.574.95zm-.781 3.348l1.012.234-.696 2.977-1.007-.235h-.004L12.09 7.04l.695-2.976zm-9.73 6.918l.468-2.02 2.977.696-.469 2.02zM9.425 23.05a2.996 2.996 0 0 1-2.309-3.172l1.031.238 3.297.77 1.453.34a2.994 2.994 0 0 1-3.472 1.824zm-.23-3.582l.695-2.977 2.02.469-.696 2.977-.348-.083zm4.91-4.086a3.954 3.954 0 0 1-3.008.496 3.97 3.97 0 0 1-2.48-1.774 3.97 3.97 0 0 1-.497-3l.004-.015A3.99 3.99 0 0 1 12 8.016a3.989 3.989 0 0 1 3.879 4.887v.003a3.962 3.962 0 0 1-1.774 2.477zm2.855-3.293l2.977.695-.47 2.02-2.976-.696zm6.09 2.484a2.999 2.999 0 0 1-3.172 2.309l.672-2.89.433-1.86.239-1.031a2.996 2.996 0 0 1 1.828 3.472zm0 0"/>
</svg>
